src/pos-icons/text-box-check.svg

<svg height="24" viewBox="0 0 24 24" width="24" xmlns="http://www.w3.org/2000/svg"><path d="m17 21-2.75-3 1.16-1.16 1.59 1.59 3.59-3.59 1.16 1.41m-8.95 4.75h-7.8c-1.11 0-2-.9-2-2v-14c0-1.11.89-2 2-2h14a2 2 0 0 1 2 2v7.8c-.88-.51-1.91-.8-3-.8l-1 .08v-1.08h-10v2h7.69c-1.62 1.07-2.69 2.91-2.69 5 0 1.09.29 2.12.8 3m-.8-6h-5v2h5m5-10h-10v2h10"/></svg>

<?xml version="1.0" encoding="UTF-8"?><!DOCTYPE svg PUBLIC "-//W3C//DTD SVG 1.1//EN" "http://www.w3.org/Graphics/SVG/1.1/DTD/svg11.dtd"><svg xmlns="http://www.w3.org/2000/svg" xmlns:xlink="http://www.w3.org/1999/xlink" version="1.1" id="mdi-text-box-check" width="24" height="24" viewBox="0 0 24 24"><path d="M17,21L14.25,18L15.41,16.84L17,18.43L20.59,14.84L21.75,16.25M12.8,21H5C3.89,21 3,20.1 3,19V5C3,3.89 3.89,3 5,3H19A2,2 0 0,1 21,5V12.8C20.12,12.29 19.09,12 18,12L17,12.08V11H7V13H14.69C13.07,14.07 12,15.91 12,18C12,19.09 12.29,20.12 12.8,21M12,15H7V17H12M17,7H7V9H17" /></svg>
